X: 16115
T: Green Glens Of Antrim, The
R: waltz
M: 3/4
K: Gmajor
D2G2|B6|B4A2|G6|G4F2|E6|G4E2|D6|D2B2c2|d6|d4c2|B6|A4G2|G6|F4G2|A6-|A2D2G2|
B6|B4A2|G6|G4F2|E6|G4E2|D6|D2B2c2|d6|d4c2|B6|D4G2|F6|G4A2|G6|G4G2|
e6|e4e2|c6|d4e2|d6|G4A2|B6|B4Bc|d6|B4A2|G6|F4G2|B6|A4^G2|A6-|A2D2=G2|
B6|B4A2|G6|G4F2|E6|G4E2|D6|D2B2c2|d6|d4c2|B6|D4G2|F6|G4A2|G6|G2||

